X: 1
T: Tam Lin
C: Trad
R: Reel
M: 4/4
L: 1/8
K: Amin
Z: ABC transcription by Verge Roller
r: 32
|: "Am" E2 AE cEAE | "F" F2 AF cFAF | "G" G2 BG dGBG | "Am" cBAG EAAG |
"Am" E2 AE cEAE | "F" F2 AF cFAF | "G" G2 BG dGBG | "Am" cBAG EA A2 :|
|: "Am" ae e2 ceAe | "Am" ae e2 ceAe | "G" gd d2 Bd d2 | "G" gd d2 gabg |
"Am" ae e2 ceAe | "Am" ae e2 ceAE | "F" F3 E FGAB | "G" cABG "Am" EAA2 :|
